packages/icons/raw/imported/SportAmericanFootball.svg

<svg width="32" height="32" viewBox="0 0 32 32" fill="none" xmlns="http://www.w3.org/2000/svg">
<path d="M11.0881 17.8008C11.8087 16.3587 12.7494 15.0368 13.8902 13.8952C15.0311 12.7536 16.3521 11.8122 17.7931 11.0912M13.2142 13.2186L14.686 14.6915M11.2518 15.6733L13.0507 16.8189M16.6485 13.055L15.5038 11.2549M7.32445 18.3422C8.92711 20.9115 11.0858 23.0716 13.6533 24.6754M18.3301 7.32873C20.8976 8.93248 23.0563 11.0926 24.659 13.6619M8.4855 24.7736C10.0064 25.0845 13.1463 25.3627 16.8422 23.5299C19.7368 22.0898 22.0917 19.7332 23.5309 16.8367C25.3625 13.1546 25.0844 10.0125 24.7737 8.47425C24.6429 7.83602 24.1523 7.34508 23.5145 7.21416C21.9773 6.9196 18.8374 6.6414 15.1578 8.47425C12.2632 9.91435 9.90827 12.2709 8.46915 15.1674C6.63754 18.8495 6.91555 21.9916 7.22627 23.5299C7.3571 24.1517 7.84771 24.6427 8.4855 24.7736Z" stroke="black" stroke-miterlimit="10" stroke-linecap="round" stroke-linejoin="round"/>
</svg>

<svg width="32" height="32" fill="none" xmlns="http://www.w3.org/2000/svg"><path d="M11.088 17.8a15.006 15.006 0 0 1 2.802-3.905 14.996 14.996 0 0 1 3.903-2.804m-4.579 2.128 1.472 1.473m-3.434.981 1.799 1.146m3.597-3.764-1.144-1.8m-8.18 7.087a19.833 19.833 0 0 0 6.33 6.333M18.33 7.33a19.833 19.833 0 0 1 6.329 6.333M8.486 24.774c1.52.31 4.66.589 8.356-1.244a14.882 14.882 0 0 0 6.689-6.693c1.832-3.682 1.553-6.825 1.243-8.363a1.61 1.61 0 0 0-1.26-1.26c-1.537-.294-4.677-.573-8.356 1.26a14.881 14.881 0 0 0-6.689 6.693c-1.831 3.682-1.553 6.825-1.243 8.363.131.622.622 1.113 1.26 1.244Z" stroke="#000" stroke-miterlimit="10" stroke-linecap="round" stroke-linejoin="round"/></svg>
